src/images/icons/icon-plus.svg

<svg width="16" height="17" viewBox="0 0 16 17" fill="none" xmlns="http://www.w3.org/2000/svg">
<path d="M16 7.35693H9V0.356934H7V7.35693H0V9.35693H7V16.3569H9V9.35693H16V7.35693Z" fill="black"/>
</svg>

<svg xmlns="http://www.w3.org/2000/svg" width="16" height="17" fill="none"><path fill="#000" d="M16 7.36H9v-7H7v7H0v2h7v7h2v-7h7v-2Z"/></svg>
